X: 694
T: Caochuan jiejian
L: 1/8
M: 2/4
K: F
d d d A [I:setbarnb 1]| 
cc2f | 
d c A D | 
F4 | 
dF2G | 
A d c A | 
G c A G | 
F DF2 | 
F G c A | 
G A G F | 
G G G C | 
D D F D | 
C4 |]

@@@ Tune index: 9568
